X: 449
T: Open the door for three
C:anon.
O:Ireland
B:Francis O'Neill: "The Dance Music of Ireland" (1907) no. 449
R:Hop, Slip jig
Z:Transcribed by Frank Nordberg - http://www.musicaviva.com
F:http://www.musicaviva.com/abc/tunes/ireland/oneill-1001/oneill-1001-044
9.abc
M:9/8
L:1/8
K:G
D|G2(cB)G(B A)FA|G2(c B)GB c2d|ege dc(B A)FD|E2c- ccA G2D|G2(c B)G(B A)FA
|G2(c B)GB c2d|ege dc(B A)FD|E2(c B)cA G2||
||d|gdB gd(B- A)FD|(gf)(e d)ef g2d|ege dc(B A)FD|E2(c B)cA G2d|gdB gd(B A
)FD|(gf)(e d)ef g2d|ege dc(B A)FD E2(c B)cA G2|]
W:
W:
W:  From Musica Viva - http://www.musicaviva.com
W:  the Internet center for free sheet music downloads.


